X:1861
T:Bourrée
C:MCTB 2/48
M:3/8
L:1/8
K:C
G|A2c|d2c|B/c/df|ecG|\
A2G|d2c|B/c/dB|c2:|
|:G|cde|fed|cde|dcG|\
cde|fed|cde|d2:|


